X:207
T:Steirische Jodler und Taenze Nr. 1 - 48 (5.)
C:traditionell
A:Salzkammergut
S:MIDI erhalten von Christian Amon. Nach einer kopie im besitz von Johann Stoeckl eines manuscriptes. Stoeckl(zitiert von Amon): "diese sammlung wurde 1935 im hause der familie Hohenlohe-Schillingfuerst gefunden. Sie wurde von einem der beiden brueder Steinegger 1866 verfasst. Die originale sind im Ausseer Kammerhofmuseum".
M:3/4
L:1/8
K:G
V:1
GA GB dB | A2 fA d2 | A2 fA dA | B2 gB d2 |\
GA GB dB | A2 fA d2 | A2 fA dB | G4 z2 |*
V:2
Bc Bd gd | c2 ad f2 | c2 ad fc | d2 bd gd |\
Bc Bd gd | c2 ad f2 | c2 ad fd | B4 z2 |*
